X: 66
T:Ms. McLeod's Reel
M:C|
L:1/8
R:Reel
K:G
GABc dBGA|B2BA BcBA|GABc dBGB|A2AG AcBA|!
GABc dBGA|B2BA Bcdf|efed Bdef|gedB AcBA:|!
|:G2gf edeg|B2BA BcBA|G2gf edeg|A2AG AcBA|!
G2gf edeg|B2BA Bcdf|efed Bdef|gedB AcBA:|]!
"variations"G2BG dGBG|DBBA BcBA|GABG DGBG|DAAG AcBA|!
G2 (3BAG dG (3BAG|BcBA Bcdf|eccB cdef|gedB AcBA:|!
|:G2gf edeg|B2BA BcBA|G2gf edeg|a2ag ac'ba|!
g2gf edeg|BcBA Bcdf|eccB cdef|gedB AcBA:|]!
